papirus/16x16/mimetypes/application-x-executable.svg

<?xml version="1.0" encoding="UTF-8" standalone="no"?>
<svg
   xmlns:dc="http://purl.org/dc/elements/1.1/"
   xmlns:cc="http://creativecommons.org/ns#"
   xmlns:rdf="http://www.w3.org/1999/02/22-rdf-syntax-ns#"
   xmlns:svg="http://www.w3.org/2000/svg"
   xmlns="http://www.w3.org/2000/svg"
   xmlns:sodipodi="http://sodipodi.sourceforge.net/DTD/sodipodi-0.dtd"
   xmlns:inkscape="http://www.inkscape.org/namespaces/inkscape"
   id="svg2"
   height="16px"
   width="16px"
   version="1.1"
   viewBox="0 0 16 16"
   inkscape:version="0.91 r"
   sodipodi:docname="application-x-executable.svg">
  <defs
     id="defs9" />
  <sodipodi:namedview
     pagecolor="#ffffff"
     bordercolor="#666666"
     borderopacity="1"
     objecttolerance="10"
     gridtolerance="10"
     guidetolerance="10"
     inkscape:pageopacity="0"
     inkscape:pageshadow="2"
     inkscape:window-width="1535"
     inkscape:window-height="876"
     id="namedview7"
     showgrid="false"
     inkscape:zoom="14.75"
     inkscape:cx="-3.9322034"
     inkscape:cy="8"
     inkscape:window-x="65"
     inkscape:window-y="24"
     inkscape:window-maximized="1"
     inkscape:current-layer="svg2" />
  <metadata
     id="metadata13">
    <rdf:RDF>
      <cc:Work
         rdf:about="">
        <dc:format>image/svg+xml</dc:format>
        <dc:type
           rdf:resource="http://purl.org/dc/dcmitype/StillImage" />
      </cc:Work>
    </rdf:RDF>
  </metadata>
  <path
     style="fill:#7f949e"
     d="M 6.5292969 1 C 6.376222 1.017472 6.2411585 1.1407883 6.2148438 1.2851562 L 5.9980469 2.3515625 A 6 6 0 0 0 4.0351562 3.5058594 L 2.9121094 3.1347656 C 2.7546691 3.0823496 2.5674623 3.1490625 2.484375 3.2890625 L 1.0449219 5.7167969 C 0.96620175 5.8567969 1.0005439 6.0492409 1.1230469 6.1542969 L 2.09375 6.9824219 A 6 6 0 0 0 2 8 A 6 6 0 0 0 2.0898438 9.0253906 L 1.1230469 9.8515625 C 0.99617682 9.9566185 0.96172285 10.149062 1.0449219 10.289062 L 2.484375 12.716797 C 2.567483 12.856797 2.7551074 12.921635 2.9082031 12.869141 L 4.0351562 12.496094 A 6 6 0 0 0 5.9980469 13.648438 L 6.2109375 14.714844 C 6.2415075 14.872764 6.3943723 15 6.5605469 15 L 9.4394531 15 C 9.6012942 15 9.7545416 14.87235 9.7851562 14.714844 L 10.001953 13.648438 A 6 6 0 0 0 11.960938 12.496094 L 13.091797 12.865234 C 13.244894 12.917724 13.432515 12.852888 13.515625 12.712891 L 14.955078 10.283203 C 15.038188 10.143203 15.003803 9.9507031 14.876953 9.8457031 L 13.90625 9.0175781 A 6 6 0 0 0 14 8 A 6 6 0 0 0 13.910156 6.9707031 L 14.876953 6.1503906 C 14.999008 6.0453346 15.033462 5.8528906 14.955078 5.7128906 L 13.515625 3.2851562 C 13.432515 3.1451563 13.245355 3.0788267 13.087891 3.1269531 L 11.964844 3.5019531 A 6 6 0 0 0 10.001953 2.3515625 L 9.7851562 1.2851562 C 9.7544743 1.1276842 9.6012606 1.004368 9.4394531 1 L 6.5605469 1 L 6.5292969 1 z M 8 5 C 9.65468 5 11 6.34532 11 8 C 11 9.65468 9.65468 11 8 11 C 6.34532 11 5 9.65468 5 8 C 5 6.34532 6.34532 5 8 5 z "
     id="path4141" />
  <path
     style="fill:#ffffff;fill-opacity:1;opacity:0.1"
     d="M 6.5292969 1 C 6.376222 1.017472 6.2411585 1.1407884 6.2148438 1.2851562 L 5.9980469 2.3515625 A 6 6 0 0 0 4.0351562 3.5058594 L 2.9121094 3.1347656 C 2.7546691 3.0823496 2.5674623 3.1490625 2.484375 3.2890625 L 1.0449219 5.7167969 C 0.97293087 5.8448294 1.0054347 6.0103364 1.1035156 6.1191406 L 2.484375 3.7890625 C 2.5674623 3.6490625 2.7546691 3.5823496 2.9121094 3.6347656 L 4.0351562 4.0058594 A 6 6 0 0 1 5.9980469 2.8515625 L 6.2148438 1.7851562 C 6.2411585 1.6407884 6.376222 1.517472 6.5292969 1.5 L 6.5605469 1.5 L 9.4394531 1.5 C 9.6012606 1.504368 9.7544744 1.6276842 9.7851562 1.7851562 L 10.001953 2.8515625 A 6 6 0 0 1 11.964844 4.0019531 L 13.087891 3.6269531 C 13.245355 3.5788267 13.432515 3.6451564 13.515625 3.7851562 L 14.896484 6.1152344 C 14.994147 6.0064236 15.026734 5.8408745 14.955078 5.7128906 L 13.515625 3.2851562 C 13.432515 3.1451564 13.245355 3.0788267 13.087891 3.1269531 L 11.964844 3.5019531 A 6 6 0 0 0 10.001953 2.3515625 L 9.7851562 1.2851562 C 9.7544744 1.1276842 9.6012606 1.004368 9.4394531 1 L 6.5605469 1 L 6.5292969 1 z M 13.970703 7.4199219 L 13.910156 7.4707031 A 6 6 0 0 1 13.988281 8.2773438 A 6 6 0 0 0 14 8 A 6 6 0 0 0 13.970703 7.4199219 z M 2.0351562 7.4335938 A 6 6 0 0 0 2 8 A 6 6 0 0 0 2.0117188 8.2226562 A 6 6 0 0 1 2.09375 7.4824219 L 2.0351562 7.4335938 z M 5.0253906 8.25 C 5.0183187 8.3338866 5 8.4143102 5 8.5 C 5 10.15468 6.34532 11.5 8 11.5 C 9.65468 11.5 11 10.15468 11 8.5 C 11 8.4143102 10.981681 8.3338866 10.974609 8.25 C 10.845121 9.7859739 9.5689902 11 8 11 C 6.4310098 11 5.1548787 9.7859739 5.0253906 8.25 z M 13.964844 9.0664062 A 6 6 0 0 1 13.90625 9.5175781 L 14.876953 10.345703 C 14.887752 10.354642 14.887041 10.370739 14.896484 10.380859 L 14.955078 10.283203 C 15.038188 10.143203 15.003803 9.9507031 14.876953 9.8457031 L 13.964844 9.0664062 z M 2.0292969 9.0761719 L 1.1230469 9.8515625 C 0.99617679 9.9566185 0.96172282 10.149062 1.0449219 10.289062 L 1.1035156 10.386719 C 1.1129608 10.376595 1.1122467 10.360506 1.1230469 10.351562 L 2.0898438 9.5253906 A 6 6 0 0 1 2.0292969 9.0761719 z "
     id="path4147" />
</svg>

<?xml version="1.0" encoding="UTF-8" standalone="no"?>
<svg id="svg2" xmlns:rdf="http://www.w3.org/1999/02/22-rdf-syntax-ns#" xmlns="http://www.w3.org/2000/svg" height="16px" width="16px" version="1.1" xmlns:cc="http://creativecommons.org/ns#" viewBox="0 0 16 16" xmlns:dc="http://purl.org/dc/elements/1.1/">
 <metadata id="metadata13">
  <rdf:RDF>
   <cc:Work rdf:about="">
    <dc:format>image/svg+xml</dc:format>
    <dc:type rdf:resource="http://purl.org/dc/dcmitype/StillImage"/>
   </cc:Work>
  </rdf:RDF>
 </metadata>
 <path id="path4141" fill="#7f949e" d="m6.5293 1c-0.1531 0.0175-0.2881 0.1408-0.3145 0.2852l-0.2168 1.0664a6 6 0 0 0 -1.9628 1.1543l-1.1231-0.3711c-0.1574-0.0525-0.3446 0.0143-0.4277 0.1543l-1.4395 2.4277c-0.0787 0.14-0.0444 0.3324 0.0781 0.4375l0.9708 0.8281a6 6 0 0 0 -0.0938 1.0176 6 6 0 0 0 0.0898 1.0254l-0.9668 0.8262c-0.12682 0.105-0.16128 0.2974-0.0781 0.4374l1.4395 2.428c0.0831 0.14 0.2707 0.205 0.4238 0.152l1.127-0.373a6 6 0 0 0 1.9628 1.152l0.2129 1.067c0.0306 0.158 0.1835 0.285 0.3496 0.285h2.879c0.1618 0 0.315-0.128 0.3457-0.285l0.2168-1.067a6 6 0 0 0 1.959 -1.152l1.131 0.369c0.153 0.053 0.341-0.012 0.424-0.152l1.439-2.43c0.083-0.14 0.049-0.3323-0.078-0.4373l-0.971-0.8281a6 6 0 0 0 0.094 -1.0176 6 6 0 0 0 -0.09 -1.0293l0.967-0.8203c0.122-0.1051 0.156-0.2975 0.078-0.4375l-1.439-2.4277c-0.083-0.14-0.271-0.2064-0.428-0.1582l-1.123 0.375a6 6 0 0 0 -1.963 -1.1504l-0.2168-1.0664c-0.0307-0.1575-0.1839-0.2808-0.3457-0.2852h-2.879-0.0312zm1.4707 4c1.6547 0 3 1.3453 3 3s-1.3453 3-3 3-3-1.3453-3-3 1.3453-3 3-3z"/>
 <path id="path4147" opacity=".1" d="m6.5293 1c-0.1531 0.0175-0.2881 0.1408-0.3145 0.2852l-0.2168 1.0664a6 6 0 0 0 -1.9628 1.1543l-1.1231-0.3711c-0.1574-0.0525-0.3446 0.0143-0.4277 0.1543l-1.4395 2.4277c-0.07197 0.128-0.0395 0.2935 0.0586 0.4023l1.3809-2.33c0.0831-0.14 0.2703-0.2068 0.4277-0.1543l1.1231 0.3711a6 6 0 0 1 1.9628 -1.1543l0.2168-1.0664c0.0264-0.1444 0.1614-0.2677 0.3145-0.2852h0.0312 2.879c0.1618 0.0044 0.315 0.1277 0.3457 0.2852l0.2168 1.0664a6 6 0 0 1 1.963 1.1504l1.123-0.375c0.157-0.0482 0.345 0.0182 0.428 0.1582l1.38 2.33c0.098-0.1088 0.131-0.2743 0.059-0.4023l-1.439-2.4277c-0.083-0.14-0.271-0.2064-0.428-0.1582l-1.123 0.375a6 6 0 0 0 -1.963 -1.1504l-0.2168-1.0664c-0.0307-0.1575-0.1839-0.2808-0.3457-0.2852h-2.879-0.0312zm7.4417 6.4199l-0.061 0.0508a6 6 0 0 1 0.078 0.8066 6 6 0 0 0 0.012 -0.2773 6 6 0 0 0 -0.029 -0.5801zm-11.936 0.0137a6 6 0 0 0 -0.0352 0.5664 6 6 0 0 0 0.0117 0.2227 6 6 0 0 1 0.0821 -0.7403l-0.0586-0.0488zm2.9902 0.8164c-0.0071 0.0839-0.0254 0.1643-0.0254 0.25 0 1.655 1.3453 3 3 3s3-1.345 3-3c0-0.0857-0.018-0.1661-0.025-0.25-0.13 1.536-1.406 2.75-2.975 2.75s-2.8451-1.214-2.9746-2.75zm8.9396 0.8164a6 6 0 0 1 -0.059 0.4512l0.971 0.8284c0.011 0.009 0.01 0.025 0.019 0.035l0.059-0.098c0.083-0.14 0.049-0.3323-0.078-0.4373l-0.912-0.7793zm-11.936 0.0098l-0.9063 0.7754c-0.12682 0.105-0.16128 0.2974-0.0781 0.4374l0.0586 0.098c0.0095-0.01 0.0087-0.026 0.0195-0.035l0.9668-0.8266a6 6 0 0 1 -0.0605 -0.4492z" fill="#fff"/>
</svg>
